!!!COM: Palestrina, Giovanni Perluigi da
!!!OPR: Missa In semidupl. maj. (I)
!!!OTL: Kyrie
**kern	**kern	**kern	**kern	**kern
*Ibass	*Itenor	*Itenor	*Icalto	*Icant
!Bassus	!Tenor 2	!Tenor 1	!Altus	!Cantus
*clefF4	*clefGv2	*clefGv2	*clefG2	*clefG2
*k[b-]	*k[b-]	*k[b-]	*k[b-]	*k[b-]
*F:ion	*F:ion	*F:ion	*F:ion	*F:ion
*M4/2	*M4/2	*M4/2	*M4/2	*M4/2
=1	=1	=1	=1	=1
0r	1F	0r	1r	0r
.	1G	.	1B-	.
=2	=2	=2	=2	=2
0r	1A	0r	1c	0r
.	1F	.	1d	.
=3	=3	=3	=3	=3
0r	1G	0r	1B-	0r
.	2F	.	1c	.
.	2E	.	.	.
=4	=4	=4	=4	=4
0r	2D	0r	2B-	1f
.	1F	.	2A	.
.	.	.	1G	1g
.	2E	.	.	.
=5	=5	=5	=5	=5
0r	4D	0r	4F	1a
.	4E	.	4G	.
.	4F	.	4A	.
.	4G	.	4B-	.
.	2A	.	4c	1f
.	.	.	4F	.
.	[2B-	.	[2f	.
=6	=6	=6	=6	=6
1r	2B-]	0r	2f]	1g
.	2c	.	2e	.
1F	2A	.	1c	2f
.	[2c	.	.	2e
=7	=7	=7	=7	=7
1G	2c]	0r	2.g	1d
.	2B	.	.	.
.	.	.	4f	.
1A	[1c	.	4e	2c
.	.	.	4d	.
.	.	.	4c	[2cc
.	.	.	4B-	.
=8	=8	=8	=8	=8
1F	1c]	1r	4A	2cc]
.	.	.	4F	.
.	.	.	2f	2a
1G	1r	1B-	2.d	2b-
.	.	.	.	2g
.	.	.	4e	.
=9	=9	=9	=9	=9
2F	2r	1c	2f	2a
2E	2G	.	2c	2.g
[1D	2B-	1d	1F	.
.	.	.	.	4f
.	2A	.	.	[2f
=10	=10	=10	=10	=10
1D]	1F	1B-	1r	2f]
.	.	.	.	4e
.	.	.	.	4d
[1C	2G	[1c	2r	1e
.	2A	.	4c	.
.	.	.	4d	.
=11	=11	=11	=11	=11
0C]	1G	2c]	4e	2.c
.	.	.	4f	.
.	.	2B-	1g	.
.	.	.	.	4d
.	[1c	1A	.	2e
.	.	.	[2f	2f
=12	=12	=12	=12	=12
1C	1c]	1G	2f]	2g
.	.	.	2e	2cc
1D	2r	1F	1f	1a
.	2F	.	.	.
=13	=13	=13	=13	=13
2E	2G	0r	1c	0r
2.F	1A	.	.	.
.	.	.	1d	.
4D	.	.	.	.
2G	2B-	.	.	.
=14	=14	=14	=14	=14
2C	4A	1r	1e	0r
.	4G	.	.	.
2E	1c	.	.	.
1D	.	1F	[1f	.
.	2B	.	.	.
=15	=15	=15	=15	=15
1C	1c	2G	2f]	1r
.	.	2A	2e	.
1r	4G	[1B-	1d	2r
.	4A	.	.	.
.	4B-	.	.	2f
.	4c	.	.	.
=16	=16	=16	=16	=16
0r	2d	2B-]	2r	2g
.	2c	2A	2c	2a
.	2r	1G	2d	[1b-
.	2B-	.	2e	.
=17	=17	=17	=17	=17
0r	2c	1F	2f	2b-]
.	2d	.	2F	2a
.	2.e-	1E-	4G	1g
.	.	.	4A	.
.	.	.	[2B-	.
.	4d	.	.	.
=18	=18	=18	=18	=18
1r	1c	2F	2B-]	1.f
.	.	1F	2A	.
1BB-	2.B-	.	1d	.
.	.	[2G	.	2d
.	4A	.	.	.
=19	=19	=19	=19	=19
1C	2G	2G]	2.c	1e-
.	2C	1A	.	.
.	.	.	4B-	.
1D	1F	.	2A	1d
.	.	[2B-	2F	.
=20	=20	=20	=20	=20
1.E-	1G	4B-]	2r	0r
.	.	4A	.	.
.	.	4G	2B-	.
.	.	4F	.	.
.	2r	2G	2c	.
2D	2F	4A	2d	.
.	.	4B-	.	.
=21	=21	=21	=21	=21
1C	2G	1c	1e-	1r
.	2A	.	.	.
2.BB-	[1B-	1F	[1d	2r
.	.	.	.	2f
4AA	.	.	.	.
=22	=22	=22	=22	=22
2GG	2B-]	0r	0d]	2g
2FF	2A	.	.	2a
4GG	1G	.	.	[1b-
4AA	.	.	.	.
4BB-	.	.	.	.
4C	.	.	.	.
=23	=23	=23	=23	=23
4D	1F	2r	2r	2b-]
4E	.	.	.	.
1F	.	2F	1c	2a
.	2C	1G	.	1g
2E	4c	.	2c	.
.	4B-	.	.	.
=24	=24	=24	=24	=24
1F	4A	1A	1c	1f
.	4G	.	.	.
.	4F	.	.	.
.	4E	.	.	.
2.BB-	2D	[1B-	2d	2r
.	2d	.	4B-	2f
4AA	.	.	4c	.
=25	=25	=25	=25	=25
2GG	2B-	2B-]	4d	2g
.	.	.	4e	.
2FF	2c	2A	1f	2a
1C	1c	1G	.	1cc
.	.	.	2e	.
=26	=26	=26	=26	=26
0FF	0c	0F	0f	0a
=27	=27	=27	=27	=27
0r	0r	0r	2r	1f
.	.	.	2f	.
.	.	.	2c	1g
.	.	.	2e	.
=28	=28	=28	=28	=28
0r	1B-	0r	4d	1b-
.	.	.	4c	.
.	.	.	4d	.
.	.	.	4e	.
.	2F	.	2f	1a
.	2A	.	2c	.
=29	=29	=29	=29	=29
0r	4G	0r	2.g	1.b-
.	4F	.	.	.
.	4G	.	.	.
.	4A	.	4f	.
.	2B-	.	2d	.
.	2F	.	[2f	2a
=30	=30	=30	=30	=30
0r	2.c	0r	2f]	1g
.	.	.	2e	.
.	4B-	.	.	.
.	2A	.	2c	[1f
.	[2B-	.	[2d	.
=31	=31	=31	=31	=31
0r	4B-]	0r	4d]	1f]
.	4A	.	4c	.
.	2F	.	1c	.
.	1G	.	.	1d
.	.	.	2B	.
=32	=32	=32	=32	=32
0r	2A	1F	2c	2.c
.	2F	.	2A	.
.	.	.	.	4d
.	2C	1G	2c	4e
.	.	.	.	4f
.	2E	.	2c	2g
=33	=33	=33	=33	=33
1BB-	4D	1B-	1d	2.f
.	4C	.	.	.
.	4D	.	.	.
.	4E	.	.	4g
2FF	2F	1A	1c	1a
2AA	2C	.	.	.
=34	=34	=34	=34	=34
4GG	2.G	1.B-	1.d	1r
4FF	.	.	.	.
4GG	.	.	.	.
4AA	4F	.	.	.
2BB-	4D	.	.	1f
.	4E	.	.	.
2FF	[2F	2A	2c	.
=35	=35	=35	=35	=35
1C	2F]	1G	1.c	1g
.	2E	.	.	.
2AA	2F	[1F	.	2a
2BB-	4D	.	2B-	4f
.	4E	.	.	4g
=36	=36	=36	=36	=36
1FF	4F	1F]	1A	4a
.	4G	.	.	4b-
.	2A	.	.	1cc
1GG	[1G	1D	1d	.
.	.	.	.	2b
=37	=37	=37	=37	=37
1AA	1G]	1C	1e	2cc
.	.	.	.	1c
2r	2A	1F	2.f	.
[2BB-	[2B-	.	.	[2d
.	.	.	4e	.
=38	=38	=38	=38	=38
2BB-]	4B-]	1G	2d	2d]
.	4A	.	.	.
1C	4G	.	1c	2.e
.	4F	.	.	.
.	2E	1A	.	.
.	.	.	.	4c
2D	2D	.	2A	[2f
=39	=39	=39	=39	=39
2BB-	2d	1G	2B-	2f]
2C	2c	.	2G	2e
2FF	2r	2.F	2A	[1f
2BB-	2B-	.	2F	.
.	.	4G	.	.
=40	=40	=40	=40	=40
2AA	2c	2A	2r	0f]
1BB-	1d	2F	1B-	.
.	.	[1F	.	.
2AA	2c	.	2c	.
=41	=41	=41	=41	=41
1BB-	1B-	1F]	1d	2r
.	.	.	.	1f
1r	2A	1r	2c	.
.	2G	.	2B-	2g
=42	=42	=42	=42	=42
0r	4F	0r	2c	1a
.	4G	.	.	.
.	4A	.	2f	.
.	4B-	.	.	.
.	2c	.	2e	2g
.	2d	.	[2f	2f
=43	=43	=43	=43	=43
0r	1c	0r	2f]	2g
.	.	.	2e	1cc
.	2F	.	1d	.
.	2G	.	.	2b
=44	=44	=44	=44	=44
1r	1A	0r	4c	1cc
.	.	.	4d	.
.	.	.	4e	.
.	.	.	4c	.
1BB-	2B-	.	4d	2.b-
.	.	.	4e	.
.	2F	.	[2f	.
.	.	.	.	4a
=45	=45	=45	=45	=45
1C	2.c	1r	2f]	1g
.	.	.	2e	.
.	4B-	.	.	.
1D	4A	1F	2d	2f
.	4G	.	.	.
.	2F	.	2A	2d
=46	=46	=46	=46	=46
2C	2E	1G	2c	2e
2BB-	2D	.	2d	1g
[1C	2E	1A	1c	.
.	2F	.	.	[2f
=47	=47	=47	=47	=47
1C]	2G	1G	2r	2f]
.	2C	.	1c	2e
2r	1D	1F	.	1f
[2F	.	.	2B	.
=48	=48	=48	=48	=48
2F]	1C	1G	2.c	2r
2E	.	.	.	1cc
.	.	.	4B-	.
2.F	2r	1c	4A	.
.	.	.	4G	.
.	[2F	.	2A	2a
4E	.	.	.	.
=49	=49	=49	=49	=49
1D	2F]	1B-	2F	1dd
.	2D	.	2f	.
1C	2.E	1c	2e	2.g
.	.	.	2c	.
.	4F	.	.	4a
=50	=50	=50	=50	=50
2GG	4G	1B-	2.d	2b-
.	4D	.	.	.
2BB-	2d	.	.	2f
.	.	.	4e	.
1FF	[1c	1A	4f	2.a
.	.	.	4c	.
.	.	.	[2f	.
.	.	.	.	4b-
=51	=51	=51	=51	=51
0C	0c]	1G	2f]	1cc
.	.	.	4e	.
.	.	.	4d	.
.	.	1G	1e	1g
=52	=52	=52	=52	=52
[0FF	[0c	[0F	[0f	[0a
=53	=53	=53	=53	=53
0FF]	0c]	0F]	0f]	0a]
=54	=54	=54	=54	=54
0r	2.F	0r	0r	0r
.	4G	.	.	.
.	4A	.	.	.
.	4B-	.	.	.
.	2c	.	.	.
=55	=55	=55	=55	=55
0r	2A	2.F	1f	0r
.	2d	.	.	.
.	.	4G	.	.
.	4c	4A	1e	.
.	4B-	4B-	.	.
.	4A	2c	.	.
.	4G	.	.	.
=56	=56	=56	=56	=56
0r	2F	2A	0f	0r
.	2B-	2d	.	.
.	2A	2c	.	.
.	2F	2A	.	.
=57	=57	=57	=57	=57
0r	2G	2B-	1d	0r
.	4F	4A	.	.
.	4E	4G	.	.
.	2D	2B-	1d	.
.	[2F	[2A	.	.
=58	=58	=58	=58	=58
1r	2F]	4A]	1c	1r
.	.	4F	.	.
.	2E	2G	.	.
1F	2F	2A	2r	2.c
.	2A	2F	[2c	.
.	.	.	.	4d
=59	=59	=59	=59	=59
1E	1G	1C	2c]	4e
.	.	.	.	4f
.	.	.	2c	2g
[1F	[1c	2r	2A	2f
.	.	4F	[2c	[2a
.	.	4G	.	.
=60	=60	=60	=60	=60
1F]	1c]	4A	4c]	4a]
.	.	4B-	4B-	4g
.	.	2c	4A	4f
.	.	.	4G	4e
1D	[1d	2B-	2.F	1f
.	.	2A	.	.
.	.	.	4G	.
=61	=61	=61	=61	=61
1D	1d]	1F	2A	2d
.	.	.	2B-	1f
1C	2r	1G	1c	.
.	2G	.	.	2e
=62	=62	=62	=62	=62
1F	2A	1F	2r	2f
.	2A	.	2f	1cc
1G	1B-	1r	2e	.
.	.	.	[2d	[2b-
=63	=63	=63	=63	=63
1F	1c	2r	2d]	2b-]
.	.	2f	1c	1a
1G	1r	2e	.	.
.	.	[2d	2B-	[2g
=64	=64	=64	=64	=64
1A	0r	2d]	1c	2g]
.	.	1c	.	2f
1G	.	.	1d	1g
.	.	2B	.	.
=65	=65	=65	=65	=65
0F	2r	1c	1f	[0a
.	2F	.	.	.
.	2A	2r	1r	.
.	[2c	2F	.	.
=66	=66	=66	=66	=66
1r	4c]	2A	1F	0a]
.	4B-	.	.	.
.	4A	2.c	.	.
.	4G	.	.	.
1FF	2F	.	1A	.
.	.	4B-	.	.
.	[2A	4A	.	.
.	.	4G	.	.
=67	=67	=67	=67	=67
1AA	4A]	4F	0c	0r
.	4G	4E	.	.
.	1F	2A	.	.
2C	.	2G	.	.
2C	2E	2G	.	.
=68	=68	=68	=68	=68
2D	2.F	2F	2r	0r
2.F	.	2.A	2c	.
.	4E	.	.	.
.	2D	.	2d	.
4E	.	4G	.	.
4D	2A	4F	[2f	.
4C	.	4E	.	.
=69	=69	=69	=69	=69
1.BB-	1.B-	2D	4f]	0r
.	.	.	4e	.
.	.	2F	4d	.
.	.	.	4c	.
.	.	2G	2B-	.
2D	2F	[2F	2A	.
=70	=70	=70	=70	=70
2C	1G	2F]	1c	1r
2C	.	2E	.	.
1BB-	1B-	2F	1d	2r
.	.	4D	.	2f
.	.	4E	.	.
=71	=71	=71	=71	=71
0FF	0A	4F	1c	2a
.	.	4G	.	.
.	.	4A	.	2.cc
.	.	4B-	.	.
.	.	2c	2r	.
.	.	.	.	4b-
.	.	2F	2c	4a
.	.	.	.	4g
=72	=72	=72	=72	=72
1r	0r	2B-	2d	4f
.	.	.	.	4g
.	.	2F	1f	2a
1C	.	1c	.	2g
.	.	.	2e	2g
=73	=73	=73	=73	=73
1D	2r	0A	1d	1f
.	2F	.	.	.
[1F	2A	.	[1c	2r
.	[2c	.	.	2f
=74	=74	=74	=74	=74
0F]	4c]	2r	1c]	2a
.	4B-	.	.	.
.	4A	2F	.	2.cc
.	4G	.	.	.
.	2F	2A	2r	.
.	.	.	.	4b-
.	[2A	4c	2F	4a
.	.	4B-	.	4g
=75	=75	=75	=75	=75
1FF	4A]	4A	1A	4f
.	4B-	4G	.	4g
.	2c	2F	.	2.a
1AA	1C	2E	[1c	.
.	.	.	.	4g
.	.	2A	.	[2f
=76	=76	=76	=76	=76
0C	2r	1G	0c]	2f]
.	2G	.	.	4e
.	.	.	.	4d
.	2C	1G	.	1e
.	2c	.	.	.
=77	=77	=77	=77	=77
1D	4B-	[0F	2r	[0f
.	4A	.	.	.
.	2.d	.	2A	.
1BB-	.	.	2B-	.
.	4c	.	.	.
.	[2B-	.	2d	.
=78	=78	=78	=78	=78
[0FF	2B-]	0F]	0c	0f]
.	4A	.	.	.
.	4G	.	.	.
.	1A	.	.	.
=79	=79	=79	=79	=79
1FF_	[0A	[0F	[0c	[0f
1FF_	.	.	.	.
=80	=80	=80	=80	=80
0FF]	0A]	0F]	0c]	0f]
==	==	==	==	==
*-	*-	*-	*-	*-
!!!CDT: 1525/^1526/-1594/2/2
!!!OCY: Italia
!!!AGN: Mass (Paraphrase)
!!!AST: renaissance, vocal
!!!ASW: Gregorian Mass
!!!PWK: Masses, Book Mantuan II
!!!RNB: Cadence finals: C
!!!YOR: Le Opere Complete, v. 19, p. 129
!!!YOO: Rome, Italy: Fratelli Scalera
!!!END: 1992//
!!!EED: John Miller
!!!YEC: Copyright 2000, John Miller
!!!YEN: United States of America
!!!YEM: Rights to all derivative electronic formats reserved.
!!!YEM: Refer to licensing agreement for further details.
!!!YEM: This file must be accompanied by the licensing agreement.
!!!YEM: A copy of the licensing agreement may be found at http://www.music-cog.ohio-state.edu/HumdrumDatabases/Palestrina/license.txt
!!!EMD: converted to Humdrum by Bret Aarden
